img/svgicons/packaging.svg

<svg width="12" height="18" viewBox="0 0 12 18" fill="none" xmlns="http://www.w3.org/2000/svg">
<path d="M11.4292 4.52712H8.31671V3.26672C8.31671 1.94852 7.27835 0.875977 6.0013 0.875977C4.7245 0.875977 3.68563 1.94852 3.68563 3.26672V4.52712H0.570591L0 18H12L11.4292 4.52712ZM4.20677 3.26645C4.20677 2.24522 5.01242 1.41375 6.00159 1.41375C6.99047 1.41375 7.79508 2.24551 7.79508 3.26645V4.52686H4.20677V3.26645Z" fill="#337D5A"/>
</svg>

<svg width="12" height="18" fill="none" xmlns="http://www.w3.org/2000/svg"><path d="M11.43 4.527H8.316v-1.26C8.317 1.949 7.278.876 6 .876s-2.315 1.073-2.315 2.39v1.261H.57L0 18h12l-.57-13.473Zm-7.223-1.26c0-1.022.805-1.853 1.795-1.853.988 0 1.793.832 1.793 1.852v1.26H4.207v-1.26Z" fill="#337D5A"/></svg>
